src/assets/svg/ic_iw_active_circle_phone_conf_susp.svg

<svg xmlns="http://www.w3.org/2000/svg" width="16" height="16">
    <g fill="#3d464d">
        <path d="M12.5 9a3.475 3.475 0 100 6.95 3.475 3.475 0 000-6.95zm1.802 4H12v-2.302a.5.5 0 011 0V12h1.302a.5.5 0 010 1z"/>
        <path d="M5.234 10.873l-.008-.01a.07.07 0 00-.009-.007C3.521 9.161 2.927 7.219 3.09 6.205c.064-.409.32-.881.682-1.244l.311-.349a.5.5 0 01.706-.017l1.38 1.379a.502.502 0 01-.016.707l-.196.196-.119.118-.155.151c-.533.534-.553 1.376-.046 1.885l1.148 1.148.231.229c.368.367.91.454 1.384.274a4.489 4.489 0 011.684-1.972 5.638 5.638 0 01-1.497-1.085l-.006-.008c-.002-.001-.005-.002-.006-.005-1.177-1.177-1.59-2.524-1.478-3.229.045-.282.223-.61.474-.861l.217-.242a.344.344 0 01.489-.013l.957.957a.347.347 0 01-.011.49l-.135.137-.083.083-.108.105c-.369.368-.383.954-.031 1.308l.798.798.159.158c.354.352.938.339 1.308-.031l.191-.188.135-.135a.351.351 0 01.491-.013l.955.958a.317.317 0 01.077.132 4.437 4.437 0 011.923.678 6.9 6.9 0 10-6.181 6.162 4.455 4.455 0 01-.685-2.147c-.881-.326-1.878-.921-2.803-1.846z"/>
    </g>
</svg>

<?xml version="1.0" encoding="iso-8859-1"?>
<!-- Generator: Adobe Illustrator 16.0.4, SVG Export Plug-In . SVG Version: 6.00 Build 0)  -->
<!DOCTYPE svg PUBLIC "-//W3C//DTD SVG 1.1//EN" "http://www.w3.org/Graphics/SVG/1.1/DTD/svg11.dtd">
<svg version="1.1" id="artwork" xmlns="http://www.w3.org/2000/svg" xmlns:xlink="http://www.w3.org/1999/xlink" x="0px" y="0px"
	 width="16px" height="16px" viewBox="0 0 16 16" style="enable-background:new 0 0 16 16;" xml:space="preserve">
<g>
	<path style="fill:#3D464D;" d="M12.5,9c-1.919,0-3.475,1.556-3.475,3.475c0,1.92,1.556,3.476,3.475,3.476s3.475-1.556,3.475-3.476
		C15.975,10.556,14.419,9,12.5,9z M14.302,13H12v-2.302c0-0.276,0.224-0.5,0.5-0.5s0.5,0.224,0.5,0.5V12h1.302
		c0.276,0,0.5,0.224,0.5,0.5S14.578,13,14.302,13z"/>
	<path style="fill:#3D464D;" d="M5.234,10.873c-0.003-0.004-0.006-0.007-0.008-0.01c-0.002-0.002-0.006-0.005-0.009-0.007
		C3.521,9.161,2.927,7.219,3.09,6.205c0.064-0.409,0.32-0.881,0.682-1.244l0.311-0.349c0.201-0.2,0.516-0.206,0.706-0.017
		l1.38,1.379c0.189,0.191,0.184,0.507-0.016,0.707L5.957,6.877L5.838,6.995L5.683,7.146C5.15,7.68,5.13,8.522,5.637,9.031
		l1.148,1.148l0.231,0.229c0.368,0.367,0.91,0.454,1.384,0.274c0.355-0.812,0.945-1.496,1.684-1.972
		C9.594,8.47,9.075,8.114,8.587,7.625C8.585,7.622,8.582,7.619,8.581,7.617C8.579,7.616,8.576,7.615,8.575,7.612
		c-1.177-1.177-1.59-2.524-1.478-3.229c0.045-0.282,0.223-0.61,0.474-0.861L7.788,3.28c0.138-0.14,0.357-0.145,0.489-0.013
		l0.957,0.957c0.131,0.133,0.128,0.352-0.011,0.49L9.088,4.851L9.005,4.934L8.897,5.039C8.528,5.407,8.514,5.993,8.866,6.347
		l0.798,0.798l0.159,0.158c0.354,0.352,0.938,0.339,1.308-0.031l0.191-0.188l0.135-0.135c0.137-0.137,0.357-0.143,0.491-0.013
		l0.955,0.958c0.038,0.038,0.062,0.084,0.077,0.132c0.703,0.075,1.355,0.315,1.923,0.678c0.023-0.231,0.036-0.466,0.036-0.703
		c0-3.811-3.09-6.9-6.9-6.9s-6.9,3.09-6.9,6.9s3.09,6.899,6.9,6.899c0.23,0,0.458-0.012,0.683-0.034
		c-0.397-0.627-0.642-1.359-0.685-2.147C7.156,12.393,6.159,11.798,5.234,10.873z"/>
</g>
</svg>
